!!!OTL: Hymnisemus domino
**kern
*staff1
=--
*clefC1
*k[b-]
1cc
2b-
2a
=-
1g
2a
2g
=-
1f
1e
=-
0f
=-
1f
1e
=-
0f
=-
1a
2g
2b-
=-
1a
1g
=-
1f
1e
=-
0f
=-
1f
2g
2g
=-
0a
=-
!!linebreak:original
1a
1dd
=-
1cc
1a
=-
1b-
1b-
=-
0a
=-
1a
1a
=-
1a
1g
=-
1f
1b-
=-
0a
=-
1g
1g
=-
0a
=-
1b-
2a
1g
1f
2e
=-
0f
=-=
*-
!!title: @{OTL}, @{GTL}, ed. @{ENC}
!!!pag:
!!!GTL: Hymnbook C
!!!EFL: 
!!!YEM: Creative Commons CC/BY/NC/SA 4.0
!!!ENC: Marcin Konik
!!!END: 2015-0m-dd
!!!EED: Marcin Konik
!!!EEV: 
!!!ONB: Encoded in vim by Marcin Konik
!!!CharacterEncoding: utf-8
!!!RDF**kern: l=long note in original notation
!!!RDF**kern: i=editorial accidental
!!muse2ps: z14jc180F
!!!COM: Anonim
!!!CDT: [?]
!!!TXO: Polish
!!!ODT: 
!!!GTL: Hymnbook C
!!!ARL: Opactwo św. Wojciecha, Staniątki 
!!!voices:	1
